resources/haticons/SVG/medium.svg

<!-- Generated by IcoMoon.io -->
<svg version="1.1" xmlns="http://www.w3.org/2000/svg" width="24" height="24" viewBox="0 0 24 24">
<title>medium</title>
<path d="M0.3 2.25v0.375l2.175 2.625s0.375 0.375 0.3 0.825v10.35s0.075 0.6-0.3 1.050c-0.3 0.45-2.475 3.075-2.475 3.075v0.375h7.2v-0.375l-2.7-3.225s-0.225-0.225-0.225-0.75v-9.075l6.225 13.425h0.75l5.4-13.425v10.725s0 0.3-0.225 0.525c-0.3 0.3-1.95 1.875-1.95 1.875v0.375h9.45v-0.375l-1.875-1.875s-0.15-0.075-0.15-0.375v-13.425s0-0.3 0.15-0.375c0.15-0.225 1.95-1.95 1.95-1.95v-0.375h-6.6l-4.725 11.55-5.4-11.55h-6.975z"></path>
</svg>

<svg xmlns="http://www.w3.org/2000/svg" width="24" height="24"><path d="M.3 2.25v.375L2.475 5.25s.375.375.3.825v10.35s.075.6-.3 1.05C2.175 17.925 0 20.55 0 20.55v.375h7.2v-.375l-2.7-3.225s-.225-.225-.225-.75V7.5L10.5 20.925h.75L16.65 7.5v10.725s0 .3-.225.525c-.3.3-1.95 1.875-1.95 1.875V21h9.45v-.375L22.05 18.75s-.15-.075-.15-.375V4.95s0-.3.15-.375C22.2 4.35 24 2.625 24 2.625V2.25h-6.6L12.675 13.8l-5.4-11.55H.3z"/></svg>
